X: 80
T:Cuckoo's Nest
% Nottingham Music Database
S:Scottish, via EF
M:4/4
L:1/4
K:D
P:A
A|"D"A/2d/2d/2c/2 d/2e/2f/2d/2|"Em"e/2d/2c/2B/2 "A"AA/2B/2|\
"C"=c/2B/2A/2B/2 c/2e/2d/2c/2|"Em"B/2A/2G/2F/2 "A7"GA/2G/2|
"D"F/2D/2F/2A/2 d/2f/2e/2d/2|"Em"c/2A/2G/2F/2 "A7"GA/2G/2|\
"D"FD "A7"C/2D/2E/2G/2|"D"FD D:|
P:B
F/2G/2|"D"A/2F/2D/2F/2 A/2F/2D/2F/2|"D"A/2G/2F/2E/2 DE/2=F/2|\
"C"G/2E/2=C/2E/2 G/2E/2C/2E/2|
"C"G/2=F/2E/2D/2 =CD/2E/2|"D"F/2D/2F/2A/2 d/2f/2e/2d/2|\
"A7"c/2A/2G/2F/2 GA/2G/2|"D"FD "A7"C/2D/2E/2G/2|"D"FD D:|<end>
<start>
